icons/avaloniaui-filled.svg

<svg width="256" height="256" viewBox="0 0 256 256" fill="none" xmlns="http://www.w3.org/2000/svg">
<rect width="256" height="256" rx="60" fill="#0D6EFD"/>
<path d="M128.751 100.849C113.49 100.849 101.119 113.218 101.119 128.476C101.119 143.735 113.49 156.104 128.751 156.104C144.012 156.104 156.383 143.735 156.383 128.476C156.383 113.218 144.012 100.849 128.751 100.849Z" fill="white"/>
<path fill-rule="evenodd" clip-rule="evenodd" d="M194.651 216H126.967C79.3479 215.174 41 176.307 41 128.5C41 80.1751 80.182 41 128.516 41C176.064 41 214.755 78.9129 216 126.153L215.849 197.197C214.589 207.802 205.597 216 194.651 216ZM72.4431 115.923C78.1742 90.106 101.211 70.8005 128.758 70.8005C160.617 70.8005 186.443 96.6225 186.443 128.475C186.443 128.715 186.446 128.973 186.45 129.24C186.456 129.791 186.462 130.373 186.443 130.866V185.76H156.432V179.093C148.217 183.593 138.787 186.151 128.758 186.151C101.211 186.151 78.1742 166.845 72.4431 141.028C77.93 139.49 81.9536 134.453 81.9536 128.475C81.9536 122.498 77.93 117.461 72.4431 115.923ZM68.6361 137.668C73.7343 137.668 77.8673 133.535 77.8673 128.438C77.8673 123.34 73.7343 119.209 68.6361 119.209C63.5379 119.209 59.4049 123.34 59.4049 128.438C59.4049 133.535 63.5379 137.668 68.6361 137.668Z" fill="white"/>
</svg>

<svg xmlns="http://www.w3.org/2000/svg" width="256" height="256" fill="none"><rect width="256" height="256" fill="#0D6EFD" rx="60"/><path fill="#fff" d="M128.751 100.849c-15.261 0-27.632 12.369-27.632 27.627 0 15.259 12.371 27.628 27.632 27.628s27.632-12.369 27.632-27.628c0-15.258-12.371-27.627-27.632-27.627"/><path fill="#fff" fill-rule="evenodd" d="M194.651 216h-67.684C79.347 215.174 41 176.307 41 128.5 41 80.175 80.182 41 128.516 41c47.548 0 86.239 37.913 87.484 85.153l-.151 71.044C214.589 207.802 205.597 216 194.651 216M72.443 115.923c5.731-25.817 28.768-45.122 56.315-45.122 31.859 0 57.685 25.822 57.685 57.674 0 .24.003.498.007.765.006.551.012 1.133-.007 1.626v54.894h-30.011v-6.667c-8.215 4.5-17.645 7.058-27.674 7.058-27.547 0-50.584-19.306-56.315-45.123 5.487-1.538 9.51-6.575 9.51-12.553 0-5.977-4.023-11.014-9.51-12.552m-3.807 21.745c5.098 0 9.231-4.133 9.231-9.23s-4.133-9.229-9.23-9.229a9.23 9.23 0 1 0-.001 18.459" clip-rule="evenodd"/></svg>
